X:1
T:Polska obs dalsegenotecken
T:efter Alfred Petersson, Nttraby, Blekinge (SvL, Band 18, nr 289)
O:Nttraby, Blekinge
S:Svenska Ltar
N:Svenska Ltar, Band 18 nr 289
R:Polska
C:Alfred Petersson
M:3/4
L:1/16
Q:1/4=100
Z:Konverterad till abc-format av  Olle Paulsson 05-01-03
K:D
d4 (fe)dc d2A2|f4 (ag)fe f4|d4 (fe)dc d2A2|f4 (ag)fe f4W|ABcd e2A2 f2A2|g2A2 f2A2 e4|
(AB)cd (ce)gA (df)dA|(gb)ge (fa)fd e3f|(g2b2) f2a2 e2g2|(fe)dc e4 d4:|
|:f3a a2a2 a2a2|d'2a2 (ba)gf g4|c3e e2g2 g2g2|g2(fg) (ag)fe f4:|W
